X:21179 
T:SHUFFLE AND CUT 
B:DMI.0997
Z:Nordberg/Black
N:This is in the "Set Dance" section of DMI.
R:slip jig % misc 9/8
%Q:1/4=150
M:9/8
L:1/8
K:D
dBG FAF EGE|cEE E2B AFD|
dBG FAF EGE|AFD D2B AFD:|
faf ege BdB|cEE E2B AFD|
faf ege BdB|AFD D2B AFD:|
G2e F2d E2D|cEE E2B AFD|
G2e F2d E2B|AFD D2B AFD:|

%%%

